!!!OTL: IM SOMMER DA GEHN WIR UEBER LAND
!!!ARE: Europa, Mitteleuropa, Deutschland, Berlin
!!!SCT: E1888A
!!!YEM: Copyright 1995, estate of Helmut Schaffrath.
**kern
*ICvox
*Ivox
*M2/4
*k[f#]
*G:
{8d
=1
4g
8g
8d
=2
4g
8g}
{8d
=3
8g
8d
8g
8b
=4
4a
8r}
{8b
=5
8cc
8cc
8a
8a
=6
8b
8b
8g}
{8g
=7
4a
8f#
8f#
=8
8g
8b
8dd}
{8b
=9
8cc
8cc
8a
8a
=10
8b
8b
8g}
{8g
=11
4a
8f#
8f#
=12
4g
8r}
==
!!!AGN: Kinder - Lied, Spiel, Reigen
!!!ONB: ESAC (Essen Associative Code) Database: ERK3
!!!AMT: simple duple
!!!AIN: vox
!!!EED: Helmut Schaffrath
!!!EEV: 1.0
*-
